!!!COM: Haydn, Franz Joseph
!!!OTL: String Quartet in F Major
!!!OPS: Opus 74
!!!ONM: No. 2
!!!OMD: Menuetto: Allegro
!!!OMV: 3
!!!SCT: H III:73
!!!SCA: Thematisch-bibliographisches Werkevererzeichnis (A. van Hoboken)
!!!YOR: Trautwein Edition
!!!ENC: Frances Bennion
!!!CDT: 1732/3/31/-1809/5/31/
!!!CNT: Oesterreich
!!!YEC: Copyright (c) 1994, 2000 Center for Computer Assisted Research in the Humanities
!!!YEM: Rights to all derivative editions reserved.
!!!YEM: Refer to licensing agreement for further details.
!!!YEN: United States of America
**kern	**kern	**kern	**kern
*k[b-]	*k[b-]	*k[b-]	*k[b-]
*F:	*F:	*F:	*F:
*clefF4	*clefC3	*clefF	*clefF
*M3/4	*M3/4	*M3/4	*M3/4
2r	2r	2r	2r
4r	4r	4r	4c
=1	=1	=1	=1
4F	4A	4f	4A
4r	4r	4r	4c
4F	4A	4c	4f
=2	=2	=2	=2
4C	4G	4B-	32e
.	.	.	32f
.	.	.	8.g
4r	4r	4r	32g
.	.	.	32a
.	.	.	8.b-
4C	4G	4B-	8g
.	.	.	8e
=3	=3	=3	=3
4F	4A	4A	4f
4r	4r	4r	4a
4F	4A	4a	4cc
=4	=4	=4	=4
2E	2A	2g	2cc#
4E	4c#	4g	4a
=5	=5	=5	=5
4D	4d	4f	4dd
4r	4r	4r	4ff
4D	[4d	[4f	4aa
=6	=6	=6	=6
2G	4d]	4f]	32b
.	.	.	32cc
.	.	.	8.dd
.	4B	4d	32dd
.	.	.	32ee
.	.	.	8.ff
4A	4c	4c	8ff
.	.	.	8ee
=7	=7	=7	=7
4F	4f	4a	8ee
.	.	.	8dd
4G	4e	4g	8dd
.	.	.	8cc
4G	4d	4f	8cc
.	.	.	8b
=8	=8	=8	=8
4C	4c	4e	4cc
4r	4r	4r	4r
4c	4r	4e	4g
=9	=9	=9	=9
4B	4r	2f	2a-
4A-	4r	.	.
4F	4d	4a-	4b
=10	=10	=10	=10
32E	4c	4g	4cc
32F	.	.	.
8.G	.	.	.
32C	4r	4r	4r
32D	.	.	.
8.E	.	.	.
4r	4c	4cc	4ee
=11	=11	=11	=11
2.r	2.d-	4b	2ff
.	.	4a-	.
.	.	4f	4b
=12	=12	=12	=12
4r	4c	32e	4cc
.	.	32f	.
.	.	8.g	.
4r	4r	32c	4r
.	.	32d	.
.	.	8.e	.
4F	4e-	4c	4a
=13	=13	=13	=13
4BB-	32d	4d	4b-
.	32e-	.	.
.	8.f	.	.
4r	32B-	4r	4r
.	32c	.	.
.	8.d	.	.
4FF#	4r	4b-	4dd
=14	=14	=14	=14
2F#	4r	4a	4cc#
.	4r	4b-	4dd
4FF#	[4d	4a	4cc
=15	=15	=15	=15
4GG	4d]	4g	4b-
4AA	4c	4f#	4a
4BB-	[4d	4g	4g
=16	=16	=16	=16
4BB	4d]	2G	4f
4C	4c	.	4e
4D	4F	4B	4d
=17	=17	=17	=17
2.E	2.C 2.G	4c	4c
.	.	4r	4B
.	.	4r	4B-
=18	=18	=18	=18
4F	4A 4C	4f	4A
4r	4r	4r	4c
4F	4A	4c	4f
=19	=19	=19	=19
4C	4G	4B-	32e
.	.	.	32f
.	.	.	8.g
4r	4r	4r	32g
.	.	.	32a
.	.	.	8.b-
4BB-	4G	4c	8g
.	.	.	8e
=20	=20	=20	=20
2.AA	2.c	2.f	4f
.	.	.	4a
.	.	.	4cc
=21	=21	=21	=21
2.BB-	2.B-	2.f	2cc#
.	.	.	4dd
=22	=22	=22	=22
4r	4r	4r	4g
4r	4r	4r	4dd
4BB-	4d	4g	4gg
=23	=23	=23	=23
[2.C	[2.g	[2.b-	2.ff
=24	=24	=24	=24
2C]	2g]	2b-]	2ee
4r	4r	4r	4cc
=25	=25	=25	=25
2.r	4f	4a	4ff
.	4r	4r	4aa
.	4f	4a	4ccc
=26	=26	=26	=26
2.r	2c	4g	32ee
.	.	.	32ff
.	.	.	8.gg
.	.	4e	32gg
.	.	.	32aa
.	.	.	8.bb-
.	4d	4f	8bb-
.	.	.	8aa
=27	=27	=27	=27
2.r	4B-	4b-	8aa
.	.	.	8gg
.	4c	4a	8gg
.	.	.	8ff
.	4c	4g	8ff
.	.	.	8ee
=28	=28	=28	=28
8CC	2.r	2.r	2.r
8DD	.	.	.
8DD	.	.	.
8EE	.	.	.
8EE	.	.	.
8FF	.	.	.
=29	=29	=29	=29
2.r	4B-	4b-	8aa
.	.	.	8gg
.	4c	4a	8gg
.	.	.	8ff
.	4c	4g	8ff
.	.	.	8ee
=30	=30	=30	=30
8CC	2.r	2.r	2.r
8DD	.	.	.
8DD	.	.	.
8EE	.	.	.
8EE	.	.	.
8FF	.	.	.
=31	=31	=31	=31
2.r	4B-	4b-	8aa
.	.	.	8gg
.	4c	4a	8gg
.	.	.	8ff
.	4c#	4g	8ff
.	.	.	8ee
=32	=32	=32	=32
2.r	4d	4f	8ee
.	.	.	8dd
.	4e	4g	8dd
.	.	.	8cc
.	4f	4a-	8cc
.	.	.	8b
=33	=33	=33	=33
2.r	8e	8g	4cc
.	8d	8f	.
.	8d	8f	4dd
.	8c	8e	.
.	8c	8e	4ee
.	8B-	8d	.
=34	=34	=34	=34
2.r	8B-	8d	4ff
.	8A	8c	.
.	8A	8c	4gg
.	8G	8B-	.
.	8G	8B-	4aa
.	8F	8A	.
=35	=35	=35	=35
8CC	8E	2c	2bb-
8DD	8F	.	.
8DD	8F	.	.
8EE	8G	.	.
8EE	8G	4cc	4aa
8FF	8A	.	.
=36	=36	=36	=36
4BB-	4B-	8cc	8aa
.	.	8b-	8gg
4C	4c	8b-	8gg
.	.	8a	8ff
4C	4c	8a	8ff
.	.	8g	8ee
=37	=37	=37	=37
4F	4F	4a	4ff
4r	4r	4r	4r
4r	4r	4r	4c
=38	=38	=38	=38
4F	4f 4A	4f 4cc 4A	4A
4r	4r	4r	4c
4r	4r	4r	4f
=39	=39	=39	=39
4BB-	4B- 4d	4dd 4f 4B-	4B-
4r	4r	4r	4d
4r	4r	4r	4g
=40	=40	=40	=40
4C	4C 4B-	4e 4G	4G
4r	4r	4r	4B-
4r	4r	4r	4e
=41	=41	=41	=41
4FF	4A 4C	4f 4A	4f
4r	4r	4r	4r
*D-:	*D-:	*D-:	*D-:
4r	4r	4A-	4r
=42	=42	=42	=42
4DD-	2.F	2.d-	2.r
4D-	.	.	.
4D-	.	.	.
=43	=43	=43	=43
4DD-	2.G-	2.e-	2.r
4D-	.	.	.
4D-	.	.	.
=44	=44	=44	=44
4DD-	4E-	4c	2.r
4D-	4D-	4B-	.
4D-	4E-	4c	.
=45	=45	=45	=45
4DD-	2.F	2.d-	8r
.	.	.	8aa-
4D-	.	.	8gg-
.	.	.	8ff
4D-	.	.	8ee-
.	.	.	8dd-
=46	=46	=46	=46
4DD-	2.G-	2.e-	8cc
.	.	.	8b-
4D-	.	.	8cc
.	.	.	8dd-
4D-	.	.	8ee-
.	.	.	8ff
=47	=47	=47	=47
4DD-	4E-	4c	8gg-
.	.	.	8aa-
4D-	4D-	4B-	8bb-
.	.	.	8ccc
4D-	4E-	4c	8ddd-
.	.	.	8eee-
=48	=48	=48	=48
[2.DD-	[2.F	4d-	4fff
.	.	4f	4ddd-
.	.	4a-	4aa-
=49	=49	=49	=49
2DD-]	2.F]	2.a-	4ff
.	.	.	4dd-
4D-	.	.	4a-
=50	=50	=50	=50
4E-	2.B-	2.d-	2.g
4D-	.	.	.
4BB-	.	.	.
=51	=51	=51	=51
4AA-	2.c	2.e-	2.a-
4EE-	.	.	.
4CC	.	.	.
=52	=52	=52	=52
2DD-	2.B-	2f	4b-
.	.	.	4dd-
4EE-	.	4d-	4g
=53	=53	=53	=53
4AA-	4c	4c	4a-
4r	4r	4r	2r
4r	4r	4A-	.
=54	=54	=54	=54
4AA-	2.e-	2.g-	8r
.	.	.	8cc
4AA-	.	.	8dd-
.	.	.	8ee-
4AA-	.	.	8ff
.	.	.	8gg-
=55	=55	=55	=55
4AA-	2.d-	2.f	8gg
.	.	.	8aa-
4AA-	.	.	8bb-
.	.	.	8aa-
4AA-	.	.	8gg-
.	.	.	8ff
=56	=56	=56	=56
4AA-	2.B-	4d-	8gg
.	.	.	8aa-
4AA-	.	4G	8bb-
.	.	.	8ccc
4AA-	.	4d-	8ddd-
.	.	.	8gg
=57	=57	=57	=57
4AA-	4c	4c	8bb-
.	.	.	8aa-
4r	4r	4r	8gg
.	.	.	8aa-
4r	4r	4r	8gg
.	.	.	8aa-
=58	=58	=58	=58
2.r	2.r	4r	8bb-
.	.	.	8aa-
.	.	4r	8gg
.	.	.	8aa-
.	.	4A-	8gg
.	.	.	8aa-
=59	=59	=59	=59
4DD-	2.F	2.d-	8bb-
.	.	.	8aa-
4D-	.	.	8gg-
.	.	.	8ff
4D-	.	.	8ee-
.	.	.	8dd-
=60	=60	=60	=60
4DD-	2.G-	2.e-	8cc
.	.	.	8b-
4D-	.	.	8cc
.	.	.	8dd-
4D-	.	.	8ee-
.	.	.	8ff
=61	=61	=61	=61
4DD-	4E-	4c	8gg-
.	.	.	8aa-
4D-	4D-	4B-	8bb-
.	.	.	8ccc
4D-	4E-	4c	8ddd-
.	.	.	8eee-
=62	=62	=62	=62
[2.DD-	[2.F	4d-	4fff
.	.	4f	4ddd-
.	.	4a-	4aa-
=63	=63	=63	=63
2.DD-]	2.F]	2.a-	4ff
.	.	.	4dd-
.	.	.	4a-
=64	=64	=64	=64
4AA-	2.B-	2.d-	2.g
4D-	.	.	.
4E	.	.	.
=65	=65	=65	=65
4AA-	2e-	2c	2g-
4AA	.	.	.
4BB-	4d-	4d-	4f
=66	=66	=66	=66
4GG-	4B-	4g-	4e-
4AA-	4A-	4f	4d-
4AA-	4G-	4e-	4c
=67	=67	=67	=67
2DD-	2F	2d-	2d-
4r	4r	4A-	4r
=68	=68	=68	=68
2.AA-	2.e-	2.g-	8r
.	.	.	8cc
.	.	.	8dd-
.	.	.	8ee-
.	.	.	8ff
.	.	.	8gg-
=69	=69	=69	=69
2.AA-	2.d-	2.f	8gg
.	.	.	8aa-
.	.	.	8bb-
.	.	.	8aa-
.	.	.	8gg-
.	.	.	8ff
=70	=70	=70	=70
2.AA	2.c	2.g-	8dd
.	.	.	8ee-
.	.	.	8aa-
.	.	.	8gg-
.	.	.	8ff
.	.	.	8ee-
=71	=71	=71	=71
2.BB-	2.d-	2.f	8cc
.	.	.	8dd-
.	.	.	8gg-
.	.	.	8ff
.	.	.	8ee-
.	.	.	8dd-
=72	=72	=72	=72
2.BB	2.d	2.a-	8ee
.	.	.	8ff
.	.	.	8bb-
.	.	.	8aa-
.	.	.	8gg
.	.	.	8ff
=73	=73	=73	=73
2.C	4e	4g	4ee
.	4r	4e	4gg
.	4r	4e	4cc
=74	=74	=74	=74
8r	2.r	2.f	2.b
8A-	.	.	.
8G	.	.	.
8F	.	.	.
8E	.	.	.
8D	.	.	.
=75	=75	=75	=75
8C	4G	4e	4cc
8AA-	.	.	.
8GG	4r	4r	4r
8FF	.	.	.
8EE	4r	4f	4b
8DD	.	.	.
=76	=76	=76	=76
8CC	4G	4e	4cc
8AA-	.	.	.
8GG	4r	4r	4r
8FF	.	.	.
8EE	4r	4f	4b
8DD	.	.	.
=77	=77	=77	=77
8CC	4G	4e	4cc
8AA-	.	.	.
8GG	4r	4r	4r
8FF	.	.	.
8EE	4r	4f	4b
8DD	.	.	.
=78	=78	=78	=78
4CC	4G	4e	4cc
4r	4r	4r	4r
4r	4r	4r	4r
==	==	==	==
*-	*-	*-	*-
!!!RWG1: This file contains only pitch and duration data.
!!!RWG2: Transposing instruments are not transposed.
!!!RWG3: Spines may have incompatible meters.
!!!RWG4: Durations of rests and tied notes may be interpreted.
!!!RWG: Key is interpreted using the Humdrum key tool.
!!!GTL: 6 Quartetti ("Apponyi")
!!!AFT: stage1
!!!END: 1997/04/15
!!!KEY: 850725839
!!!EMD: Converted from MuseData to Humdrum Dec 16, 2000, by Andreas Kornstaedt using muse2kern.
!!!EMD: Manual editing by Craig Sapp, Nov 2001
